report_00007_2020-12-11T15:55:29.892Z/network-server-latency/comparison/line/2_vs_3.svg

<svg width="640" height="500" xmlns="http://www.w3.org/2000/svg" xmlns:xlink="http://www.w3.org/1999/xlink"><path fill="#fff" d="M0 0h640v500H0z"/><defs><path id="d" stroke-width=".222" stroke="currentColor" d="M-1-1h2v2h-2z"/><path id="b" stroke-width=".222" stroke="currentColor" d="M0-1.33l-1.33 2h2.66z"/><path id="f" stroke-width=".222" stroke="currentColor" d="M0 1.33L1.265.411.782-1.067l-1.564-.009-.483 1.487z"/><use xlink:href="#b" id="c" stroke="currentColor" transform="rotate(180)"/><use xlink:href="#d" id="e" stroke="currentColor" transform="rotate(45)"/><circle id="a" stroke-width=".222" stroke="currentColor" cx="0" cy="0" r="1"/></defs><g fill="none" color="#000" stroke="currentColor"><path stroke="#000" d="M53.9 440.4h9m552.1 0h-9"/><text transform="translate(45.6 444.3)" stroke="none" fill="#000" font-family="Arial" font-size="12" text-anchor="end"><tspan>0</tspan></text></g><g fill="none" color="#000" stroke="currentColor"><path stroke="#000" d="M53.9 383.8h9m552.1 0h-9"/><text transform="translate(45.6 387.7)" stroke="none" fill="#000" font-family="Arial" font-size="12" text-anchor="end"><tspan>100</tspan></text></g><g fill="none" color="#000" stroke="currentColor"><path stroke="#000" d="M53.9 327.1h9m552.1 0h-9"/><text transform="translate(45.6 331)" stroke="none" fill="#000" font-family="Arial" font-size="12" text-anchor="end"><tspan>200</tspan></text></g><g fill="none" color="#000" stroke="currentColor"><path stroke="#000" d="M53.9 270.5h9m552.1 0h-9"/><text transform="translate(45.6 274.4)" stroke="none" fill="#000" font-family="Arial" font-size="12" text-anchor="end"><tspan>300</tspan></text></g><g fill="none" color="#000" stroke="currentColor"><path stroke="#000" d="M53.9 213.8h9m552.1 0h-9"/><text transform="translate(45.6 217.7)" stroke="none" fill="#000" font-family="Arial" font-size="12" text-anchor="end"><tspan>400</tspan></text></g><g fill="none" color="#000" stroke="currentColor"><path stroke="#000" d="M53.9 157.1h9m552.1 0h-9"/><text transform="translate(45.6 161)" stroke="none" fill="#000" font-family="Arial" font-size="12" text-anchor="end"><tspan>500</tspan></text></g><g fill="none" color="#000" stroke="currentColor"><path stroke="#000" d="M53.9 100.5h9m552.1 0h-9"/><text transform="translate(45.6 104.4)" stroke="none" fill="#000" font-family="Arial" font-size="12" text-anchor="end"><tspan>600</tspan></text></g><g fill="none" color="#000" stroke="currentColor"><path stroke="#000" d="M53.9 43.8h9m552.1 0h-9"/><text transform="translate(45.6 47.7)" stroke="none" fill="#000" font-family="Arial" font-size="12" text-anchor="end"><tspan>700</tspan></text></g><g fill="none" color="#000" stroke="currentColor"><path stroke="#000" d="M53.9 446v-9m0-418.9v9"/><text transform="translate(53.9 467.9)" stroke="none" fill="#000" font-family="Arial" font-size="12" text-anchor="middle"><tspan>0</tspan></text></g><g fill="none" color="#000" stroke="currentColor"><path stroke="#000" d="M110.6 446v-9m0-418.9v9"/><text transform="translate(110.6 467.9)" stroke="none" fill="#000" font-family="Arial" font-size="12" text-anchor="middle"><tspan>10</tspan></text></g><g fill="none" color="#000" stroke="currentColor"><path stroke="#000" d="M167.3 446v-9m0-418.9v9"/><text transform="translate(167.3 467.9)" stroke="none" fill="#000" font-family="Arial" font-size="12" text-anchor="middle"><tspan>20</tspan></text></g><g fill="none" color="#000" stroke="currentColor"><path stroke="#000" d="M223.9 446v-9m0-418.9v9"/><text transform="translate(223.9 467.9)" stroke="none" fill="#000" font-family="Arial" font-size="12" text-anchor="middle"><tspan>30</tspan></text></g><g fill="none" color="#000" stroke="currentColor"><path stroke="#000" d="M280.6 446v-9m0-418.9v9"/><text transform="translate(280.6 467.9)" stroke="none" fill="#000" font-family="Arial" font-size="12" text-anchor="middle"><tspan>40</tspan></text></g><g fill="none" color="#000" stroke="currentColor"><path stroke="#000" d="M337.3 446v-9m0-418.9v9"/><text transform="translate(337.3 467.9)" stroke="none" fill="#000" font-family="Arial" font-size="12" text-anchor="middle"><tspan>50</tspan></text></g><g fill="none" color="#000" stroke="currentColor"><path stroke="#000" d="M394 446v-9m0-418.9v9"/><text transform="translate(394 467.9)" stroke="none" fill="#000" font-family="Arial" font-size="12" text-anchor="middle"><tspan>60</tspan></text></g><g fill="none" color="#000" stroke="currentColor"><path stroke="#000" d="M450.6 446v-9m0-418.9v9"/><text transform="translate(450.6 467.9)" stroke="none" fill="#000" font-family="Arial" font-size="12" text-anchor="middle"><tspan>70</tspan></text></g><g fill="none" color="#000" stroke="currentColor"><path stroke="#000" d="M507.3 446v-9m0-418.9v9"/><text transform="translate(507.3 467.9)" stroke="none" fill="#000" font-family="Arial" font-size="12" text-anchor="middle"><tspan>80</tspan></text></g><g fill="none" color="#000" stroke="currentColor"><path stroke="#000" d="M564 446v-9m0-418.9v9"/><text transform="translate(564 467.9)" stroke="none" fill="#000" font-family="Arial" font-size="12" text-anchor="middle"><tspan>90</tspan></text></g><path stroke="#000" d="M53.9 18.1V446H615V18.1H53.9z" fill="none" color="#000"/><text transform="translate(275.6 485.9)" stroke="none" fill="#000" font-family="Arial" font-size="12" text-anchor="end" color="#000"><tspan>pages+cached</tspan></text><path stroke="#9400D3" d="M283.9 482h42.2M53.9 26.3l5.7 408.3 5.6 2.7 5.7-3 5.7 1.5 5.6-2.1 5.7 1.8 5.7 1.3 5.6-.3 5.7-1.4 5.7 1.4h5.6l5.7.6 5.7-.3 5.6-.1 5.7-.1 5.7-1.3 5.7-.9 5.6 1.1 5.7 1.5 5.7-1.7 5.6 1.5 5.7-.4 5.7.4 5.6.5 5.7-.5 5.7-1.5 5.6 1.6 5.7.3 5.7-.8 5.6.8 5.7-1.6 5.7-.2 5.6.6 5.7-.1 5.7-.4 5.6-.5 5.7 1.8 5.7.7 5.6-.5h5.7l5.7-.3 5.6.2 5.7-1 5.7 1.2 5.6-.3 5.7-.8 5.7-1.7 5.6 2.7 5.7-.1 5.7.2 5.7-.3 5.6-.8 5.7-1 5.7 1.8 5.6-1.7 5.7-.3 5.7 2 5.6.5 5.7-1.7 5.7.9 5.6-1.1 5.7 1.3 5.7.1 5.6.1 5.7-1.1 5.7.6 5.6.8 5.7-3.1 5.7.7 5.6-.8 5.7.9 5.7 1.9 5.6.3 5.7-2.3 5.7 2.5 5.6-.3 5.7-1.3 5.7 1.3 5.6-.9 5.7.8 5.7.3 5.6-.9 5.7-1.1 5.7.1 5.7 1.8 5.6.1 5.7-.1 5.7.3 5.6-.1 5.7-.9 5.7-.6 5.6.9 5.7.3 5.7.2 5.6.3 5.7.1 5.7-.6 5.6-1.8 5.7 1.6" fill="none" color="#000"/><text transform="translate(550.2 485.9)" stroke="none" fill="#000" font-family="Arial" font-size="12" text-anchor="end" color="#000"><tspan>pages+cached+nointeractive</tspan></text><path stroke="#009E73" d="M558.5 482h42.2M53.9 436.4l5.7.6 5.6.3 5.7-.1 5.7-.1 5.6-.3 5.7-1.2 5.7 2.1 5.6-2.4 5.7 1.6 5.7.4h5.6l5.7-.2 5.7-.1 5.6.3 5.7-.3 5.7.6 5.7-1.4 5.6-.7 5.7.1 5.7 1.7 5.6-.2 5.7-1.8 5.7.6 5.6 1.5 5.7-1.5 5.7 1.6 5.6-1.9 5.7 1.6 5.7.1 5.6-.4 5.7.7 5.7-.6 5.6-.5 5.7.8 5.7-.5 5.6.2 5.7.1 5.7.2 5.6.1 5.7-.3h5.7l5.6.3 5.7-.5 5.7.3 5.6-.7 5.7.5 5.7.3h11.3l5.7.1 5.7-.2 5.6-1.3 5.7.4 5.7 1.1h5.6l5.7-.5 5.7.2 5.6-1.6 5.7 1.9 5.7-.4 5.6.2 5.7.3 5.7-1.6 5.6 1.1 5.7.4 5.7-.5 5.6.6 5.7-.3h5.7l5.6.5 5.7-.3h5.7l5.6-2.3 5.7.7 5.7 1.7 5.6-.2 5.7-.2 5.7-1.7 5.6.5 5.7 1.8 5.7-.4 5.6-.3 5.7.4 5.7.4 5.7-.7 5.6.3 5.7-2.6 5.7 2.6 5.6-.1 5.7-.6 5.7-1.5 5.6 1.8 5.7.5 5.7-1.4 5.6 1.5 5.7-.1 5.7-.2 5.6.1 5.7-.5" fill="none" color="#000"/><g fill="none" color="#000" stroke="currentColor"><path stroke="#000" d="M53.9 18.1V446H615V18.1H53.9z"/></g></svg>

<?xml version="1.0" encoding="utf-8"  standalone="no"?>
<svg 
 width="640" height="500"
 viewBox="0 0 640 500"
 xmlns="http://www.w3.org/2000/svg"
 xmlns:xlink="http://www.w3.org/1999/xlink"
>

<title>Gnuplot</title>
<desc>Produced by GNUPLOT 5.4 patchlevel 0 </desc>

<g id="gnuplot_canvas">

<rect x="0" y="0" width="640" height="500" fill="#ffffff"/>
<defs>

	<circle id='gpDot' r='0.5' stroke-width='0.5' stroke='currentColor'/>
	<path id='gpPt0' stroke-width='0.222' stroke='currentColor' d='M-1,0 h2 M0,-1 v2'/>
	<path id='gpPt1' stroke-width='0.222' stroke='currentColor' d='M-1,-1 L1,1 M1,-1 L-1,1'/>
	<path id='gpPt2' stroke-width='0.222' stroke='currentColor' d='M-1,0 L1,0 M0,-1 L0,1 M-1,-1 L1,1 M-1,1 L1,-1'/>
	<rect id='gpPt3' stroke-width='0.222' stroke='currentColor' x='-1' y='-1' width='2' height='2'/>
	<rect id='gpPt4' stroke-width='0.222' stroke='currentColor' fill='currentColor' x='-1' y='-1' width='2' height='2'/>
	<circle id='gpPt5' stroke-width='0.222' stroke='currentColor' cx='0' cy='0' r='1'/>
	<use xlink:href='#gpPt5' id='gpPt6' fill='currentColor' stroke='none'/>
	<path id='gpPt7' stroke-width='0.222' stroke='currentColor' d='M0,-1.33 L-1.33,0.67 L1.33,0.67 z'/>
	<use xlink:href='#gpPt7' id='gpPt8' fill='currentColor' stroke='none'/>
	<use xlink:href='#gpPt7' id='gpPt9' stroke='currentColor' transform='rotate(180)'/>
	<use xlink:href='#gpPt9' id='gpPt10' fill='currentColor' stroke='none'/>
	<use xlink:href='#gpPt3' id='gpPt11' stroke='currentColor' transform='rotate(45)'/>
	<use xlink:href='#gpPt11' id='gpPt12' fill='currentColor' stroke='none'/>
	<path id='gpPt13' stroke-width='0.222' stroke='currentColor' d='M0,1.330 L1.265,0.411 L0.782,-1.067 L-0.782,-1.076 L-1.265,0.411 z'/>
	<use xlink:href='#gpPt13' id='gpPt14' fill='currentColor' stroke='none'/>
	<filter id='textbox' filterUnits='objectBoundingBox' x='0' y='0' height='1' width='1'>
	  <feFlood flood-color='#FFFFFF' flood-opacity='1' result='bgnd'/>
	  <feComposite in='SourceGraphic' in2='bgnd' operator='atop'/>
	</filter>
	<filter id='greybox' filterUnits='objectBoundingBox' x='0' y='0' height='1' width='1'>
	  <feFlood flood-color='lightgrey' flood-opacity='1' result='grey'/>
	  <feComposite in='SourceGraphic' in2='grey' operator='atop'/>
	</filter>
</defs>
<g fill="none" color="#FFFFFF" stroke="black" stroke-width="1.00" stroke-linecap="butt" stroke-linejoin="miter">
</g>
<g fill="none" color="black" stroke="currentColor" stroke-width="1.00" stroke-linecap="butt" stroke-linejoin="miter">
	<path stroke='black'  d='M53.9,440.4 L62.9,440.4 M615.0,440.4 L606.0,440.4  '/>	<g transform="translate(45.6,444.3)" stroke="none" fill="black" font-family="Arial" font-size="12.00"  text-anchor="end">
		<text><tspan font-family="Arial" > 0</tspan></text>
	</g>
</g>
<g fill="none" color="black" stroke="currentColor" stroke-width="1.00" stroke-linecap="butt" stroke-linejoin="miter">
	<path stroke='black'  d='M53.9,383.8 L62.9,383.8 M615.0,383.8 L606.0,383.8  '/>	<g transform="translate(45.6,387.7)" stroke="none" fill="black" font-family="Arial" font-size="12.00"  text-anchor="end">
		<text><tspan font-family="Arial" > 100</tspan></text>
	</g>
</g>
<g fill="none" color="black" stroke="currentColor" stroke-width="1.00" stroke-linecap="butt" stroke-linejoin="miter">
	<path stroke='black'  d='M53.9,327.1 L62.9,327.1 M615.0,327.1 L606.0,327.1  '/>	<g transform="translate(45.6,331.0)" stroke="none" fill="black" font-family="Arial" font-size="12.00"  text-anchor="end">
		<text><tspan font-family="Arial" > 200</tspan></text>
	</g>
</g>
<g fill="none" color="black" stroke="currentColor" stroke-width="1.00" stroke-linecap="butt" stroke-linejoin="miter">
	<path stroke='black'  d='M53.9,270.5 L62.9,270.5 M615.0,270.5 L606.0,270.5  '/>	<g transform="translate(45.6,274.4)" stroke="none" fill="black" font-family="Arial" font-size="12.00"  text-anchor="end">
		<text><tspan font-family="Arial" > 300</tspan></text>
	</g>
</g>
<g fill="none" color="black" stroke="currentColor" stroke-width="1.00" stroke-linecap="butt" stroke-linejoin="miter">
	<path stroke='black'  d='M53.9,213.8 L62.9,213.8 M615.0,213.8 L606.0,213.8  '/>	<g transform="translate(45.6,217.7)" stroke="none" fill="black" font-family="Arial" font-size="12.00"  text-anchor="end">
		<text><tspan font-family="Arial" > 400</tspan></text>
	</g>
</g>
<g fill="none" color="black" stroke="currentColor" stroke-width="1.00" stroke-linecap="butt" stroke-linejoin="miter">
	<path stroke='black'  d='M53.9,157.1 L62.9,157.1 M615.0,157.1 L606.0,157.1  '/>	<g transform="translate(45.6,161.0)" stroke="none" fill="black" font-family="Arial" font-size="12.00"  text-anchor="end">
		<text><tspan font-family="Arial" > 500</tspan></text>
	</g>
</g>
<g fill="none" color="black" stroke="currentColor" stroke-width="1.00" stroke-linecap="butt" stroke-linejoin="miter">
	<path stroke='black'  d='M53.9,100.5 L62.9,100.5 M615.0,100.5 L606.0,100.5  '/>	<g transform="translate(45.6,104.4)" stroke="none" fill="black" font-family="Arial" font-size="12.00"  text-anchor="end">
		<text><tspan font-family="Arial" > 600</tspan></text>
	</g>
</g>
<g fill="none" color="black" stroke="currentColor" stroke-width="1.00" stroke-linecap="butt" stroke-linejoin="miter">
	<path stroke='black'  d='M53.9,43.8 L62.9,43.8 M615.0,43.8 L606.0,43.8  '/>	<g transform="translate(45.6,47.7)" stroke="none" fill="black" font-family="Arial" font-size="12.00"  text-anchor="end">
		<text><tspan font-family="Arial" > 700</tspan></text>
	</g>
</g>
<g fill="none" color="black" stroke="currentColor" stroke-width="1.00" stroke-linecap="butt" stroke-linejoin="miter">
	<path stroke='black'  d='M53.9,446.0 L53.9,437.0 M53.9,18.1 L53.9,27.1  '/>	<g transform="translate(53.9,467.9)" stroke="none" fill="black" font-family="Arial" font-size="12.00"  text-anchor="middle">
		<text><tspan font-family="Arial" > 0</tspan></text>
	</g>
</g>
<g fill="none" color="black" stroke="currentColor" stroke-width="1.00" stroke-linecap="butt" stroke-linejoin="miter">
	<path stroke='black'  d='M110.6,446.0 L110.6,437.0 M110.6,18.1 L110.6,27.1  '/>	<g transform="translate(110.6,467.9)" stroke="none" fill="black" font-family="Arial" font-size="12.00"  text-anchor="middle">
		<text><tspan font-family="Arial" > 10</tspan></text>
	</g>
</g>
<g fill="none" color="black" stroke="currentColor" stroke-width="1.00" stroke-linecap="butt" stroke-linejoin="miter">
	<path stroke='black'  d='M167.3,446.0 L167.3,437.0 M167.3,18.1 L167.3,27.1  '/>	<g transform="translate(167.3,467.9)" stroke="none" fill="black" font-family="Arial" font-size="12.00"  text-anchor="middle">
		<text><tspan font-family="Arial" > 20</tspan></text>
	</g>
</g>
<g fill="none" color="black" stroke="currentColor" stroke-width="1.00" stroke-linecap="butt" stroke-linejoin="miter">
	<path stroke='black'  d='M223.9,446.0 L223.9,437.0 M223.9,18.1 L223.9,27.1  '/>	<g transform="translate(223.9,467.9)" stroke="none" fill="black" font-family="Arial" font-size="12.00"  text-anchor="middle">
		<text><tspan font-family="Arial" > 30</tspan></text>
	</g>
</g>
<g fill="none" color="black" stroke="currentColor" stroke-width="1.00" stroke-linecap="butt" stroke-linejoin="miter">
	<path stroke='black'  d='M280.6,446.0 L280.6,437.0 M280.6,18.1 L280.6,27.1  '/>	<g transform="translate(280.6,467.9)" stroke="none" fill="black" font-family="Arial" font-size="12.00"  text-anchor="middle">
		<text><tspan font-family="Arial" > 40</tspan></text>
	</g>
</g>
<g fill="none" color="black" stroke="currentColor" stroke-width="1.00" stroke-linecap="butt" stroke-linejoin="miter">
	<path stroke='black'  d='M337.3,446.0 L337.3,437.0 M337.3,18.1 L337.3,27.1  '/>	<g transform="translate(337.3,467.9)" stroke="none" fill="black" font-family="Arial" font-size="12.00"  text-anchor="middle">
		<text><tspan font-family="Arial" > 50</tspan></text>
	</g>
</g>
<g fill="none" color="black" stroke="currentColor" stroke-width="1.00" stroke-linecap="butt" stroke-linejoin="miter">
	<path stroke='black'  d='M394.0,446.0 L394.0,437.0 M394.0,18.1 L394.0,27.1  '/>	<g transform="translate(394.0,467.9)" stroke="none" fill="black" font-family="Arial" font-size="12.00"  text-anchor="middle">
		<text><tspan font-family="Arial" > 60</tspan></text>
	</g>
</g>
<g fill="none" color="black" stroke="currentColor" stroke-width="1.00" stroke-linecap="butt" stroke-linejoin="miter">
	<path stroke='black'  d='M450.6,446.0 L450.6,437.0 M450.6,18.1 L450.6,27.1  '/>	<g transform="translate(450.6,467.9)" stroke="none" fill="black" font-family="Arial" font-size="12.00"  text-anchor="middle">
		<text><tspan font-family="Arial" > 70</tspan></text>
	</g>
</g>
<g fill="none" color="black" stroke="currentColor" stroke-width="1.00" stroke-linecap="butt" stroke-linejoin="miter">
	<path stroke='black'  d='M507.3,446.0 L507.3,437.0 M507.3,18.1 L507.3,27.1  '/>	<g transform="translate(507.3,467.9)" stroke="none" fill="black" font-family="Arial" font-size="12.00"  text-anchor="middle">
		<text><tspan font-family="Arial" > 80</tspan></text>
	</g>
</g>
<g fill="none" color="black" stroke="currentColor" stroke-width="1.00" stroke-linecap="butt" stroke-linejoin="miter">
	<path stroke='black'  d='M564.0,446.0 L564.0,437.0 M564.0,18.1 L564.0,27.1  '/>	<g transform="translate(564.0,467.9)" stroke="none" fill="black" font-family="Arial" font-size="12.00"  text-anchor="middle">
		<text><tspan font-family="Arial" > 90</tspan></text>
	</g>
</g>
<g fill="none" color="black" stroke="currentColor" stroke-width="1.00" stroke-linecap="butt" stroke-linejoin="miter">
</g>
<g fill="none" color="black" stroke="currentColor" stroke-width="1.00" stroke-linecap="butt" stroke-linejoin="miter">
	<path stroke='black'  d='M53.9,18.1 L53.9,446.0 L615.0,446.0 L615.0,18.1 L53.9,18.1 Z  '/></g>
<g fill="none" color="black" stroke="currentColor" stroke-width="1.00" stroke-linecap="butt" stroke-linejoin="miter">
</g>
	<g id="gnuplot_plot_1" ><title>pages+cached</title>
<g fill="none" color="black" stroke="currentColor" stroke-width="1.00" stroke-linecap="butt" stroke-linejoin="miter">
	<g transform="translate(275.6,485.9)" stroke="none" fill="black" font-family="Arial" font-size="12.00"  text-anchor="end">
		<text><tspan font-family="Arial" >pages+cached</tspan></text>
	</g>
</g>
<g fill="none" color="black" stroke="currentColor" stroke-width="1.00" stroke-linecap="butt" stroke-linejoin="miter">
	<path stroke='rgb(148,   0, 211)'  d='M283.9,482.0 L326.1,482.0 M53.9,26.3 L59.6,434.6 L65.2,437.3 L70.9,434.3 L76.6,435.8 L82.2,433.7
		L87.9,435.5 L93.6,436.8 L99.2,436.5 L104.9,435.1 L110.6,436.5 L116.2,436.5 L121.9,437.1 L127.6,436.8
		L133.2,436.7 L138.9,436.6 L144.6,435.3 L150.3,434.4 L155.9,435.5 L161.6,437.0 L167.3,435.3 L172.9,436.8
		L178.6,436.4 L184.3,436.8 L189.9,437.3 L195.6,436.8 L201.3,435.3 L206.9,436.9 L212.6,437.2 L218.3,436.4
		L223.9,437.2 L229.6,435.6 L235.3,435.4 L240.9,436.0 L246.6,435.9 L252.3,435.5 L257.9,435.0 L263.6,436.8
		L269.3,437.5 L274.9,437.0 L280.6,437.0 L286.3,436.7 L291.9,436.9 L297.6,435.9 L303.3,437.1 L308.9,436.8
		L314.6,436.0 L320.3,434.3 L325.9,437.0 L331.6,436.9 L337.3,437.1 L343.0,436.8 L348.6,436.0 L354.3,435.0
		L360.0,436.8 L365.6,435.1 L371.3,434.8 L377.0,436.8 L382.6,437.3 L388.3,435.6 L394.0,436.5 L399.6,435.4
		L405.3,436.7 L411.0,436.8 L416.6,436.9 L422.3,435.8 L428.0,436.4 L433.6,437.2 L439.3,434.1 L445.0,434.8
		L450.6,434.0 L456.3,434.9 L462.0,436.8 L467.6,437.1 L473.3,434.8 L479.0,437.3 L484.6,437.0 L490.3,435.7
		L496.0,437.0 L501.6,436.1 L507.3,436.9 L513.0,437.2 L518.6,436.3 L524.3,435.2 L530.0,435.3 L535.7,437.1
		L541.3,437.2 L547.0,437.1 L552.7,437.4 L558.3,437.3 L564.0,436.4 L569.7,435.8 L575.3,436.7 L581.0,437.0
		L586.7,437.2 L592.3,437.5 L598.0,437.6 L603.7,437.0 L609.3,435.2 L615.0,436.8  '/></g>
	</g>
	<g id="gnuplot_plot_2" ><title>pages+cached+nointeractive</title>
<g fill="none" color="black" stroke="currentColor" stroke-width="1.00" stroke-linecap="butt" stroke-linejoin="miter">
	<g transform="translate(550.2,485.9)" stroke="none" fill="black" font-family="Arial" font-size="12.00"  text-anchor="end">
		<text><tspan font-family="Arial" >pages+cached+nointeractive</tspan></text>
	</g>
</g>
<g fill="none" color="black" stroke="currentColor" stroke-width="1.00" stroke-linecap="butt" stroke-linejoin="miter">
	<path stroke='rgb(  0, 158, 115)'  d='M558.5,482.0 L600.7,482.0 M53.9,436.4 L59.6,437.0 L65.2,437.3 L70.9,437.2 L76.6,437.1 L82.2,436.8
		L87.9,435.6 L93.6,437.7 L99.2,435.3 L104.9,436.9 L110.6,437.3 L116.2,437.3 L121.9,437.1 L127.6,437.0
		L133.2,437.3 L138.9,437.0 L144.6,437.6 L150.3,436.2 L155.9,435.5 L161.6,435.6 L167.3,437.3 L172.9,437.1
		L178.6,435.3 L184.3,435.9 L189.9,437.4 L195.6,435.9 L201.3,437.5 L206.9,435.6 L212.6,437.2 L218.3,437.3
		L223.9,436.9 L229.6,437.6 L235.3,437.0 L240.9,436.5 L246.6,437.3 L252.3,436.8 L257.9,437.0 L263.6,437.1
		L269.3,437.3 L274.9,437.4 L280.6,437.1 L286.3,437.1 L291.9,437.4 L297.6,436.9 L303.3,437.2 L308.9,436.5
		L314.6,437.0 L320.3,437.3 L325.9,437.3 L331.6,437.3 L337.3,437.4 L343.0,437.2 L348.6,435.9 L354.3,436.3
		L360.0,437.4 L365.6,437.4 L371.3,436.9 L377.0,437.1 L382.6,435.5 L388.3,437.4 L394.0,437.0 L399.6,437.2
		L405.3,437.5 L411.0,435.9 L416.6,437.0 L422.3,437.4 L428.0,436.9 L433.6,437.5 L439.3,437.2 L445.0,437.2
		L450.6,437.7 L456.3,437.4 L462.0,437.4 L467.6,435.1 L473.3,435.8 L479.0,437.5 L484.6,437.3 L490.3,437.1
		L496.0,435.4 L501.6,435.9 L507.3,437.7 L513.0,437.3 L518.6,437.0 L524.3,437.4 L530.0,437.8 L535.7,437.1
		L541.3,437.4 L547.0,434.8 L552.7,437.4 L558.3,437.3 L564.0,436.7 L569.7,435.2 L575.3,437.0 L581.0,437.5
		L586.7,436.1 L592.3,437.6 L598.0,437.5 L603.7,437.3 L609.3,437.4 L615.0,436.9  '/></g>
	</g>
<g fill="none" color="#FFFFFF" stroke="rgb(  0, 158, 115)" stroke-width="2.00" stroke-linecap="butt" stroke-linejoin="miter">
</g>
<g fill="none" color="black" stroke="currentColor" stroke-width="2.00" stroke-linecap="butt" stroke-linejoin="miter">
</g>
<g fill="none" color="black" stroke="black" stroke-width="1.00" stroke-linecap="butt" stroke-linejoin="miter">
</g>
<g fill="none" color="black" stroke="currentColor" stroke-width="1.00" stroke-linecap="butt" stroke-linejoin="miter">
	<path stroke='black'  d='M53.9,18.1 L53.9,446.0 L615.0,446.0 L615.0,18.1 L53.9,18.1 Z  '/></g>
<g fill="none" color="black" stroke="currentColor" stroke-width="1.00" stroke-linecap="butt" stroke-linejoin="miter">
</g>
</g>
</svg>
